X: 26726
T: Mike Sullivan's
R: hornpipe
M: 4/4
K: Amixolydian
z|c2 c>B c>ec>A|d2 (3edc d>fa>A|(3Bce c>B c>ea>f|e>ca>c B>AF>A|
c2 c>B c>ec>A|(3dfd (3B=c^c d>fa>f|e2 A>c B>AF>G|A3 G A2:|
z|e>fg>B a>ge>d|(3efg e>d e>c A2|e>fg>B a>ge>d|e>fe>d (3efg e>d|
c2 c>B c>ec>A|(3dfd (3B=c^c d>fa>f|e2 A>c B>AF>G|A3 G A2:|

